images/171927.svg

<?xml version="1.0" encoding="UTF-8"?>
<svg xmlns="http://www.w3.org/2000/svg" xmlns:xlink="http://www.w3.org/1999/xlink" width="300pt" height="300pt" viewBox="0 0 300 300" version="1.1">
<defs>
<g>
<symbol overflow="visible" id="glyph0-0">
<path style="stroke:none;" d="M 0.59375 2.125 L 0.59375 -8.46875 L 6.59375 -8.46875 L 6.59375 2.125 Z M 1.265625 1.453125 L 5.9375 1.453125 L 5.9375 -7.78125 L 1.265625 -7.78125 Z M 1.265625 1.453125 "/>
</symbol>
<symbol overflow="visible" id="glyph0-1">
<path style="stroke:none;" d="M 4.734375 -7.953125 C 3.867188 -7.953125 3.179688 -7.628906 2.671875 -6.984375 C 2.171875 -6.347656 1.921875 -5.472656 1.921875 -4.359375 C 1.921875 -3.265625 2.171875 -2.394531 2.671875 -1.75 C 3.179688 -1.113281 3.867188 -0.796875 4.734375 -0.796875 C 5.585938 -0.796875 6.265625 -1.113281 6.765625 -1.75 C 7.273438 -2.394531 7.53125 -3.265625 7.53125 -4.359375 C 7.53125 -5.472656 7.273438 -6.347656 6.765625 -6.984375 C 6.265625 -7.628906 5.585938 -7.953125 4.734375 -7.953125 Z M 4.734375 -8.90625 C 5.953125 -8.90625 6.925781 -8.492188 7.65625 -7.671875 C 8.394531 -6.847656 8.765625 -5.742188 8.765625 -4.359375 C 8.765625 -2.984375 8.394531 -1.882812 7.65625 -1.0625 C 6.925781 -0.238281 5.953125 0.171875 4.734375 0.171875 C 3.503906 0.171875 2.519531 -0.238281 1.78125 -1.0625 C 1.039062 -1.882812 0.671875 -2.984375 0.671875 -4.359375 C 0.671875 -5.742188 1.039062 -6.847656 1.78125 -7.671875 C 2.519531 -8.492188 3.503906 -8.90625 4.734375 -8.90625 Z M 4.734375 -8.90625 "/>
</symbol>
<symbol overflow="visible" id="glyph0-2">
<path style="stroke:none;" d="M 1.171875 -8.75 L 2.359375 -8.75 L 2.359375 -5.15625 L 6.65625 -5.15625 L 6.65625 -8.75 L 7.84375 -8.75 L 7.84375 0 L 6.65625 0 L 6.65625 -4.171875 L 2.359375 -4.171875 L 2.359375 0 L 1.171875 0 Z M 1.171875 -8.75 "/>
</symbol>
</g>
</defs>
<g id="surface14913">
<rect x="0" y="0" width="300" height="300" style="fill:rgb(100%,100%,100%);fill-opacity:1;stroke:none;"/>
<path style="fill:none;stroke-width:1.2;stroke-linecap:butt;stroke-linejoin:miter;stroke:rgb(100%,0%,0%);stroke-opacity:1;stroke-miterlimit:10;" d="M 169.292969 125.667969 L 183.679688 128.304688 "/>
<path style="fill:none;stroke-width:1.2;stroke-linecap:butt;stroke-linejoin:miter;stroke:rgb(0%,0%,0%);stroke-opacity:1;stroke-miterlimit:10;" d="M 183.679688 128.304688 L 198.066406 130.945312 "/>
<path style="fill:none;stroke-width:1.2;stroke-linecap:butt;stroke-linejoin:miter;stroke:rgb(0%,0%,0%);stroke-opacity:1;stroke-miterlimit:10;" d="M 150.335938 147.945312 L 159.816406 136.804688 "/>
<path style="fill:none;stroke-width:1.2;stroke-linecap:butt;stroke-linejoin:miter;stroke:rgb(100%,0%,0%);stroke-opacity:1;stroke-miterlimit:10;" d="M 159.816406 136.804688 L 169.292969 125.667969 "/>
<path style=" stroke:none;fill-rule:nonzero;fill:rgb(100%,100%,100%);fill-opacity:1;" d="M 164.292969 118.667969 L 174.292969 118.667969 L 174.292969 132.667969 L 164.292969 132.667969 Z M 164.292969 118.667969 "/>
<g style="fill:rgb(100%,0%,0%);fill-opacity:1;">
  <use xlink:href="#glyph0-1" x="164.292969" y="129.806641"/>
</g>
<path style="fill:none;stroke-width:1.2;stroke-linecap:butt;stroke-linejoin:miter;stroke:rgb(0%,0%,0%);stroke-opacity:1;stroke-miterlimit:10;" d="M 198.066406 130.945312 L 207.878906 158.5 "/>
<path style="fill:none;stroke-width:1.2;stroke-linecap:butt;stroke-linejoin:miter;stroke:rgb(0%,0%,0%);stroke-opacity:1;stroke-miterlimit:10;" d="M 205.53125 131.390625 L 213.382812 153.433594 "/>
<path style="fill:none;stroke-width:1.2;stroke-linecap:butt;stroke-linejoin:miter;stroke:rgb(0%,0%,0%);stroke-opacity:1;stroke-miterlimit:10;" d="M 217.023438 108.667969 L 198.066406 130.945312 "/>
<path style="fill:none;stroke-width:1.2;stroke-linecap:butt;stroke-linejoin:miter;stroke:rgb(0%,0%,0%);stroke-opacity:1;stroke-miterlimit:10;" d="M 207.878906 158.5 L 188.921875 180.777344 "/>
<path style="fill:none;stroke-width:1.2;stroke-linecap:butt;stroke-linejoin:miter;stroke:rgb(0%,0%,0%);stroke-opacity:1;stroke-miterlimit:10;" d="M 207.878906 158.5 L 236.652344 163.777344 "/>
<path style="fill:none;stroke-width:1.2;stroke-linecap:butt;stroke-linejoin:miter;stroke:rgb(0%,0%,0%);stroke-opacity:1;stroke-miterlimit:10;" d="M 185.683594 181.933594 L 190.589844 195.710938 "/>
<path style="fill:none;stroke-width:1.2;stroke-linecap:butt;stroke-linejoin:miter;stroke:rgb(100%,0%,0%);stroke-opacity:1;stroke-miterlimit:10;" d="M 190.589844 195.710938 L 195.496094 209.488281 "/>
<path style="fill:none;stroke-width:1.2;stroke-linecap:butt;stroke-linejoin:miter;stroke:rgb(0%,0%,0%);stroke-opacity:1;stroke-miterlimit:10;" d="M 192.164062 179.625 L 197.074219 193.402344 "/>
<path style="fill:none;stroke-width:1.2;stroke-linecap:butt;stroke-linejoin:miter;stroke:rgb(100%,0%,0%);stroke-opacity:1;stroke-miterlimit:10;" d="M 197.074219 193.402344 L 201.980469 207.179688 "/>
<path style="fill:none;stroke-width:1.2;stroke-linecap:butt;stroke-linejoin:miter;stroke:rgb(0%,0%,0%);stroke-opacity:1;stroke-miterlimit:10;" d="M 188.921875 180.777344 L 160.152344 175.5 "/>
<path style=" stroke:none;fill-rule:nonzero;fill:rgb(100%,100%,100%);fill-opacity:1;" d="M 193.738281 201.335938 L 203.738281 201.335938 L 203.738281 215.335938 L 193.738281 215.335938 Z M 193.738281 201.335938 "/>
<g style="fill:rgb(100%,0%,0%);fill-opacity:1;">
  <use xlink:href="#glyph0-1" x="193.738281" y="212.474609"/>
</g>
<path style="fill:none;stroke-width:1.2;stroke-linecap:butt;stroke-linejoin:miter;stroke:rgb(0%,0%,0%);stroke-opacity:1;stroke-miterlimit:10;" d="M 160.152344 175.5 L 150.671875 186.640625 "/>
<path style="fill:none;stroke-width:1.2;stroke-linecap:butt;stroke-linejoin:miter;stroke:rgb(100%,0%,0%);stroke-opacity:1;stroke-miterlimit:10;" d="M 150.671875 186.640625 L 141.195312 197.777344 "/>
<path style="fill:none;stroke-width:1.2;stroke-linecap:butt;stroke-linejoin:miter;stroke:rgb(0%,0%,0%);stroke-opacity:1;stroke-miterlimit:10;" d="M 160.152344 175.5 L 150.335938 147.945312 "/>
<path style="fill:none;stroke-width:1.2;stroke-linecap:butt;stroke-linejoin:miter;stroke:rgb(0%,0%,0%);stroke-opacity:1;stroke-miterlimit:10;" d="M 165.65625 170.433594 L 157.800781 148.390625 "/>
<path style=" stroke:none;fill-rule:nonzero;fill:rgb(100%,100%,100%);fill-opacity:1;" d="M 122.195312 190.777344 L 141.195312 190.777344 L 141.195312 204.777344 L 122.195312 204.777344 Z M 122.195312 190.777344 "/>
<g style="fill:rgb(100%,0%,0%);fill-opacity:1;">
  <use xlink:href="#glyph0-2" x="122.195312" y="201.916016"/>
  <use xlink:href="#glyph0-1" x="131.21875" y="201.916016"/>
</g>
<path style="fill:none;stroke-width:1.2;stroke-linecap:butt;stroke-linejoin:miter;stroke:rgb(0%,0%,0%);stroke-opacity:1;stroke-miterlimit:10;" d="M 150.335938 147.945312 L 121.566406 142.667969 "/>
<path style="fill:none;stroke-width:1.2;stroke-linecap:butt;stroke-linejoin:miter;stroke:rgb(0%,0%,0%);stroke-opacity:1;stroke-miterlimit:10;" d="M 121.566406 142.667969 L 111.75 115.109375 "/>
<path style="fill:none;stroke-width:1.2;stroke-linecap:butt;stroke-linejoin:miter;stroke:rgb(0%,0%,0%);stroke-opacity:1;stroke-miterlimit:10;" d="M 114.101562 142.222656 L 106.246094 120.175781 "/>
<path style="fill:none;stroke-width:1.2;stroke-linecap:butt;stroke-linejoin:miter;stroke:rgb(0%,0%,0%);stroke-opacity:1;stroke-miterlimit:10;" d="M 102.609375 164.945312 L 121.566406 142.667969 "/>
<path style="fill:none;stroke-width:1.2;stroke-linecap:butt;stroke-linejoin:miter;stroke:rgb(0%,0%,0%);stroke-opacity:1;stroke-miterlimit:10;" d="M 111.75 115.109375 L 82.976562 109.832031 "/>
<path style="fill:none;stroke-width:1.2;stroke-linecap:butt;stroke-linejoin:miter;stroke:rgb(0%,0%,0%);stroke-opacity:1;stroke-miterlimit:10;" d="M 82.976562 109.832031 L 64.023438 132.109375 "/>
<path style="fill:none;stroke-width:1.2;stroke-linecap:butt;stroke-linejoin:miter;stroke:rgb(0%,0%,0%);stroke-opacity:1;stroke-miterlimit:10;" d="M 86.324219 116.519531 L 71.160156 134.34375 "/>
<path style="fill:none;stroke-width:1.2;stroke-linecap:butt;stroke-linejoin:miter;stroke:rgb(0%,0%,0%);stroke-opacity:1;stroke-miterlimit:10;" d="M 64.023438 132.109375 L 49.636719 129.472656 "/>
<path style="fill:none;stroke-width:1.2;stroke-linecap:butt;stroke-linejoin:miter;stroke:rgb(100%,0%,0%);stroke-opacity:1;stroke-miterlimit:10;" d="M 49.636719 129.472656 L 35.25 126.832031 "/>
<path style="fill:none;stroke-width:1.2;stroke-linecap:butt;stroke-linejoin:miter;stroke:rgb(0%,0%,0%);stroke-opacity:1;stroke-miterlimit:10;" d="M 64.023438 132.109375 L 73.835938 159.667969 "/>
<path style=" stroke:none;fill-rule:nonzero;fill:rgb(100%,100%,100%);fill-opacity:1;" d="M 16.25 119.832031 L 35.25 119.832031 L 35.25 133.832031 L 16.25 133.832031 Z M 16.25 119.832031 "/>
<g style="fill:rgb(100%,0%,0%);fill-opacity:1;">
  <use xlink:href="#glyph0-2" x="16.25" y="130.970703"/>
  <use xlink:href="#glyph0-1" x="25.273438" y="130.970703"/>
</g>
<path style="fill:none;stroke-width:1.2;stroke-linecap:butt;stroke-linejoin:miter;stroke:rgb(0%,0%,0%);stroke-opacity:1;stroke-miterlimit:10;" d="M 73.835938 159.667969 L 102.609375 164.945312 "/>
<path style="fill:none;stroke-width:1.2;stroke-linecap:butt;stroke-linejoin:miter;stroke:rgb(0%,0%,0%);stroke-opacity:1;stroke-miterlimit:10;" d="M 77.957031 153.425781 L 100.972656 157.648438 "/>
<path style="fill:none;stroke-width:1.2;stroke-linecap:butt;stroke-linejoin:miter;stroke:rgb(0%,0%,0%);stroke-opacity:1;stroke-miterlimit:10;" d="M 102.609375 164.945312 L 107.515625 178.722656 "/>
<path style="fill:none;stroke-width:1.2;stroke-linecap:butt;stroke-linejoin:miter;stroke:rgb(100%,0%,0%);stroke-opacity:1;stroke-miterlimit:10;" d="M 107.515625 178.722656 L 112.421875 192.5 "/>
<path style=" stroke:none;fill-rule:nonzero;fill:rgb(100%,100%,100%);fill-opacity:1;" d="M 103.421875 185.5 L 122.421875 185.5 L 122.421875 199.5 L 103.421875 199.5 Z M 103.421875 185.5 "/>
<g style="fill:rgb(100%,0%,0%);fill-opacity:1;">
  <use xlink:href="#glyph0-1" x="103.421875" y="196.638672"/>
  <use xlink:href="#glyph0-2" x="112.867188" y="196.638672"/>
</g>
<path style="fill:none;stroke-width:1.2;stroke-linecap:butt;stroke-linejoin:miter;stroke:rgb(0%,0%,0%);stroke-opacity:1;stroke-miterlimit:10;" d="M 236.652344 163.777344 L 241.558594 177.554688 "/>
<path style="fill:none;stroke-width:1.2;stroke-linecap:butt;stroke-linejoin:miter;stroke:rgb(100%,0%,0%);stroke-opacity:1;stroke-miterlimit:10;" d="M 241.558594 177.554688 L 246.46875 191.332031 "/>
<path style="fill:none;stroke-width:1.2;stroke-linecap:butt;stroke-linejoin:miter;stroke:rgb(0%,0%,0%);stroke-opacity:1;stroke-miterlimit:10;" d="M 236.652344 163.777344 L 255.609375 141.5 "/>
<path style="fill:none;stroke-width:1.2;stroke-linecap:butt;stroke-linejoin:miter;stroke:rgb(0%,0%,0%);stroke-opacity:1;stroke-miterlimit:10;" d="M 233.304688 157.089844 L 248.472656 139.265625 "/>
<path style=" stroke:none;fill-rule:nonzero;fill:rgb(100%,100%,100%);fill-opacity:1;" d="M 237.46875 184.332031 L 256.46875 184.332031 L 256.46875 198.332031 L 237.46875 198.332031 Z M 237.46875 184.332031 "/>
<g style="fill:rgb(100%,0%,0%);fill-opacity:1;">
  <use xlink:href="#glyph0-1" x="237.46875" y="195.470703"/>
  <use xlink:href="#glyph0-2" x="246.914062" y="195.470703"/>
</g>
<path style="fill:none;stroke-width:1.2;stroke-linecap:butt;stroke-linejoin:miter;stroke:rgb(0%,0%,0%);stroke-opacity:1;stroke-miterlimit:10;" d="M 255.609375 141.5 L 245.792969 113.945312 "/>
<path style="fill:none;stroke-width:1.2;stroke-linecap:butt;stroke-linejoin:miter;stroke:rgb(0%,0%,0%);stroke-opacity:1;stroke-miterlimit:10;" d="M 245.792969 113.945312 L 255.273438 102.804688 "/>
<path style="fill:none;stroke-width:1.2;stroke-linecap:butt;stroke-linejoin:miter;stroke:rgb(100%,0%,0%);stroke-opacity:1;stroke-miterlimit:10;" d="M 255.273438 102.804688 L 264.75 91.664062 "/>
<path style="fill:none;stroke-width:1.2;stroke-linecap:butt;stroke-linejoin:miter;stroke:rgb(0%,0%,0%);stroke-opacity:1;stroke-miterlimit:10;" d="M 245.792969 113.945312 L 217.023438 108.667969 "/>
<path style="fill:none;stroke-width:1.2;stroke-linecap:butt;stroke-linejoin:miter;stroke:rgb(0%,0%,0%);stroke-opacity:1;stroke-miterlimit:10;" d="M 241.675781 120.1875 L 218.65625 115.964844 "/>
<path style=" stroke:none;fill-rule:nonzero;fill:rgb(100%,100%,100%);fill-opacity:1;" d="M 255.75 84.664062 L 274.75 84.664062 L 274.75 98.664062 L 255.75 98.664062 Z M 255.75 84.664062 "/>
<g style="fill:rgb(100%,0%,0%);fill-opacity:1;">
  <use xlink:href="#glyph0-1" x="255.75" y="95.802734"/>
  <use xlink:href="#glyph0-2" x="265.195312" y="95.802734"/>
</g>
</g>
</svg>

<svg xmlns="http://www.w3.org/2000/svg" xmlns:xlink="http://www.w3.org/1999/xlink" width="300pt" height="300pt" viewBox="0 0 300 300"><defs><symbol overflow="visible"><path d="M.594 2.125V-8.47h6V2.126zm.672-.672h4.671V-7.78h-4.67zm0 0"/></symbol><symbol overflow="visible" id="a"><path d="M4.734-7.953c-.867 0-1.554.324-2.062.97-.5.635-.75 1.51-.75 2.624 0 1.094.25 1.965.75 2.61.508.637 1.195.953 2.062.953.852 0 1.532-.316 2.032-.953.507-.645.765-1.516.765-2.61 0-1.113-.257-1.988-.764-2.624-.5-.645-1.18-.97-2.032-.97zm0-.953c1.22 0 2.192.414 2.922 1.234.74.824 1.11 1.93 1.11 3.313 0 1.376-.37 2.477-1.11 3.298C6.926-.24 5.953.17 4.734.17c-1.23 0-2.214-.41-2.953-1.234C1.04-1.882.673-2.984.673-4.36c0-1.382.367-2.488 1.11-3.312.738-.82 1.722-1.234 2.952-1.234zm0 0"/></symbol><symbol overflow="visible" id="b"><path d="M1.172-8.75H2.36v3.594h4.296V-8.75h1.188V0H6.656v-4.172H2.36V0H1.17zm0 0"/></symbol></defs><g><path fill="#fff" d="M0 0h300v300H0z"/><path d="M169.293 125.668l14.387 2.637" stroke-width="1.2" stroke="#f00" stroke-miterlimit="10" fill="none"/><path d="M183.68 128.305l14.386 2.64M150.336 147.945l9.48-11.14" stroke-width="1.2" stroke="#000" stroke-miterlimit="10" fill="none"/><path d="M159.816 136.805l9.477-11.137" stroke-width="1.2" stroke="#f00" stroke-miterlimit="10" fill="none"/><path d="M164.293 118.668h10v14h-10zm0 0" fill="#fff"/><use xlink:href="#a" x="164.293" y="129.807" fill="#f00"/><path d="M198.066 130.945l9.813 27.555M205.53 131.39l7.853 22.044M217.023 108.668l-18.957 22.277M207.88 158.5l-18.958 22.277M207.88 158.5l28.772 5.277M185.684 181.934l4.906 13.777" stroke-width="1.2" stroke="#000" stroke-miterlimit="10" fill="none"/><path d="M190.59 195.71l4.906 13.778" stroke-width="1.2" stroke="#f00" stroke-miterlimit="10" fill="none"/><path d="M192.164 179.625l4.91 13.777" stroke-width="1.2" stroke="#000" stroke-miterlimit="10" fill="none"/><path d="M197.074 193.402l4.906 13.778" stroke-width="1.2" stroke="#f00" stroke-miterlimit="10" fill="none"/><path d="M188.922 180.777l-28.77-5.277" stroke-width="1.2" stroke="#000" stroke-miterlimit="10" fill="none"/><path d="M193.738 201.336h10v14h-10zm0 0" fill="#fff"/><use xlink:href="#a" x="193.738" y="212.475" fill="#f00"/><path d="M160.152 175.5l-9.48 11.14" stroke-width="1.2" stroke="#000" stroke-miterlimit="10" fill="none"/><path d="M150.672 186.64l-9.477 11.137" stroke-width="1.2" stroke="#f00" stroke-miterlimit="10" fill="none"/><path d="M160.152 175.5l-9.816-27.555M165.656 170.434L157.8 148.39" stroke-width="1.2" stroke="#000" stroke-miterlimit="10" fill="none"/><path d="M122.195 190.777h19v14h-19zm0 0" fill="#fff"/><g fill="#f00"><use xlink:href="#b" x="122.195" y="201.916"/><use xlink:href="#a" x="131.219" y="201.916"/></g><path d="M150.336 147.945l-28.77-5.277M121.566 142.668l-9.816-27.56M114.102 142.223l-7.856-22.047M102.61 164.945l18.956-22.277M111.75 115.11l-28.773-5.278M82.977 109.832L64.023 132.11M86.324 116.52L71.16 134.344M64.023 132.11l-14.386-2.637" stroke-width="1.2" stroke="#000" stroke-miterlimit="10" fill="none"/><path d="M49.637 129.473l-14.387-2.64" stroke-width="1.2" stroke="#f00" stroke-miterlimit="10" fill="none"/><path d="M64.023 132.11l9.813 27.558" stroke-width="1.2" stroke="#000" stroke-miterlimit="10" fill="none"/><path d="M16.25 119.832h19v14h-19zm0 0" fill="#fff"/><g fill="#f00"><use xlink:href="#b" x="16.25" y="130.971"/><use xlink:href="#a" x="25.273" y="130.971"/></g><path d="M73.836 159.668l28.773 5.277M77.957 153.426l23.016 4.222M102.61 164.945l4.906 13.778" stroke-width="1.2" stroke="#000" stroke-miterlimit="10" fill="none"/><path d="M107.516 178.723l4.906 13.777" stroke-width="1.2" stroke="#f00" stroke-miterlimit="10" fill="none"/><path d="M103.422 185.5h19v14h-19zm0 0" fill="#fff"/><g fill="#f00"><use xlink:href="#a" x="103.422" y="196.639"/><use xlink:href="#b" x="112.867" y="196.639"/></g><path d="M236.652 163.777l4.907 13.778" stroke-width="1.2" stroke="#000" stroke-miterlimit="10" fill="none"/><path d="M241.56 177.555l4.91 13.777" stroke-width="1.2" stroke="#f00" stroke-miterlimit="10" fill="none"/><path d="M236.652 163.777L255.61 141.5M233.305 157.09l15.168-17.824" stroke-width="1.2" stroke="#000" stroke-miterlimit="10" fill="none"/><path d="M237.47 184.332h19v14h-19zm0 0" fill="#fff"/><g fill="#f00"><use xlink:href="#a" x="237.469" y="195.471"/><use xlink:href="#b" x="246.914" y="195.471"/></g><path d="M255.61 141.5l-9.817-27.555M245.793 113.945l9.48-11.14" stroke-width="1.2" stroke="#000" stroke-miterlimit="10" fill="none"/><path d="M255.273 102.805l9.477-11.14" stroke-width="1.2" stroke="#f00" stroke-miterlimit="10" fill="none"/><path d="M245.793 113.945l-28.77-5.277M241.676 120.188l-23.02-4.223" stroke-width="1.2" stroke="#000" stroke-miterlimit="10" fill="none"/><path d="M255.75 84.664h19v14h-19zm0 0" fill="#fff"/><g fill="#f00"><use xlink:href="#a" x="255.75" y="95.803"/><use xlink:href="#b" x="265.195" y="95.803"/></g></g></svg>
